resources/svg/google-drive.svg

<svg xmlns="http://www.w3.org/2000/svg" viewBox="0 0 15 15" fill="currentColor"><path d="M4.56268 1.25762C4.65079 1.09864 4.81824 1 5 1H10C10.1806 1 10.3472 1.09743 10.4358 1.25487L14.2299 8H8.47288L4.576 1.765C4.47967 1.61087 4.47457 1.41659 4.56268 1.25762Z" fill="black"/><path d="M3.91064 14H12.4999C12.6893 14 12.8624 13.893 12.9471 13.7236L14.9471 9.72361C15.0246 9.56861 15.0163 9.38454 14.9252 9.23713C14.8341 9.08973 14.6732 9 14.4999 9H7.09246L3.91064 14Z" fill="black"/><path d="M0.0642124 9.25481L3.85624 2.51343L6.90622 7.39339L2.924 13.7649C2.82814 13.9183 2.65693 14.008 2.47627 13.9994C2.29561 13.9908 2.13367 13.8853 2.05279 13.7236L0.0527865 9.72355C-0.021442 9.57509 -0.0171613 9.39948 0.0642124 9.25481Z" fill="black"/></svg>

<svg xmlns="http://www.w3.org/2000/svg" viewBox="0 0 15 15" fill="currentColor"><path d="M4.563 1.258A.5.5 0 015 1h5a.5.5 0 01.436.255L14.23 8H8.473L4.576 1.765a.5.5 0 01-.013-.507zM3.91 14h8.59a.5.5 0 00.447-.276l2-4A.5.5 0 0014.5 9H7.092l-3.181 5zM.064 9.255l3.792-6.742 3.05 4.88-3.982 6.372a.5.5 0 01-.871-.041l-2-4a.5.5 0 01.011-.47z" fill="currentColor"/></svg>
